X:5
T:O Seigneur je viens vers Toi - E116
C:M. Phophette
M:2/4
L:1/8
K:C
"Do"C2D2|E3E|"Do7M"E2F2|E3E|E2F2|"Fa7M"E2EE|GG2E|"Sol"D3z|D2E2|"Rem"F3F|F2G2|"Sol"F3F|\
F2G2|"Rem"F2DD|GG2F|"Do"E3z||
"Do"G3A|"Lam"c3c|B2A2|"Fa"A4|"Rem"F3F|"Mim"G2A2|G4-|G2z2|"Fa"A3A|c2c2|B3A|"Mim"GE3|\
"Fa"D3D|E2DC|"Sol"D4-D2z2||
